actions/scalable/tools-rip-video-dvd.svg

<svg height="22" width="22" xmlns="http://www.w3.org/2000/svg" xmlns:sodipodi="http://sodipodi.sourceforge.net/DTD/sodipodi-0.dtd" xmlns:inkscape="http://www.inkscape.org/namespaces/inkscape">
 <path d="m11 3c-4.432 0-8 3.568-8 8s3.568 8 8 8v-1c-3.878 0-7-3.122-7-7s3.122-7 7-7 7 3.122 7 7h1c0-4.432-3.568-8-8-8zm0 6c-1.108 0-2 0.892-2 2s0.892 2 2 2v-1c-0.554 0-1-0.446-1-1s0.446-1 1-1 1 0.446 1 1h1c0-1.108-0.892-2-2-2z" fill="#4d4d4d" transform="matrix(1 0 0 1 0 0)"/>
 <path d="m13.5 13c-0.831 0-1.5 0.669-1.5 1.5 0 0.654 0.418 1.202 1 1.408v3.092h4v-2-1c0.554 0 1-0.446 1-1s-0.446-1-1-1-1 0.446-1 1h-1.092c0.056-0.157 0.092-0.323 0.092-0.5 0-0.831-0.669-1.5-1.5-1.5zm3.5 4l2 2v-4l-2 2zm-3-1h2v2h-2v-2z" fill="#4d4d4d" transform="matrix(1 0 0 1 0 0)"/>
</svg>

<?xml version="1.0" encoding="UTF-8" standalone="no"?>
<!-- Created with Inkscape (http://www.inkscape.org/) -->

<svg
   xmlns:dc="http://purl.org/dc/elements/1.1/"
   xmlns:cc="http://creativecommons.org/ns#"
   xmlns:rdf="http://www.w3.org/1999/02/22-rdf-syntax-ns#"
   xmlns:svg="http://www.w3.org/2000/svg"
   xmlns="http://www.w3.org/2000/svg"
   xmlns:sodipodi="http://sodipodi.sourceforge.net/DTD/sodipodi-0.dtd"
   xmlns:inkscape="http://www.inkscape.org/namespaces/inkscape"
   width="22"
   height="22"
   id="svg3529"
   version="1.1"
   inkscape:version="0.48+devel r"
   sodipodi:docname="tools-rip-video-dvd.svg">
  <defs
     id="defs3531" />
  <sodipodi:namedview
     id="base"
     pagecolor="#ffffff"
     bordercolor="#666666"
     borderopacity="1.0"
     inkscape:pageopacity="0.0"
     inkscape:pageshadow="2"
     inkscape:zoom="33.486188"
     inkscape:cx="3.4097079"
     inkscape:cy="10.940497"
     inkscape:document-units="px"
     inkscape:current-layer="layer1"
     showgrid="true"
     fit-margin-top="0"
     fit-margin-left="0"
     fit-margin-right="0"
     fit-margin-bottom="0"
     inkscape:window-width="1366"
     inkscape:window-height="666"
     inkscape:window-x="-2"
     inkscape:window-y="25"
     inkscape:window-maximized="1"
     inkscape:showpageshadow="false">
    <inkscape:grid
       type="xygrid"
       id="grid4107" />
    <sodipodi:guide
       position="1.9999928,19.999997"
       orientation="18,0"
       id="guide4113" />
    <sodipodi:guide
       position="1.9999928,1.9999974"
       orientation="0,18"
       id="guide4115" />
    <sodipodi:guide
       position="19.999993,1.9999974"
       orientation="-18,0"
       id="guide4117" />
    <sodipodi:guide
       position="19.999993,19.999997"
       orientation="0,-18"
       id="guide4119" />
    <sodipodi:guide
       position="2.9999928,18.999997"
       orientation="16,0"
       id="guide4121" />
    <sodipodi:guide
       position="18.999993,2.9999974"
       orientation="-16,0"
       id="guide4125" />
    <sodipodi:guide
       position="18.999993,18.999997"
       orientation="0,-16"
       id="guide4127" />
  </sodipodi:namedview>
  <metadata
     id="metadata3534">
    <rdf:RDF>
      <cc:Work
         rdf:about="">
        <dc:format>image/svg+xml</dc:format>
        <dc:type
           rdf:resource="http://purl.org/dc/dcmitype/StillImage" />
        <dc:title />
      </cc:Work>
    </rdf:RDF>
  </metadata>
  <g
     inkscape:label="Capa 1"
     inkscape:groupmode="layer"
     id="layer1"
     transform="translate(-453.14286,-654.36218)">
    <path
       style="opacity:1;fill:#666666;fill-opacity:1;stroke:none"
       d="m 11,3 c -4.432,0 -8,3.568 -8,8 0,4.432 3.568,8 8,8 l 0,-1 C 7.122,18 4,14.878 4,11 4,7.122 7.122,4 11,4 c 3.878,0 7,3.122 7,7 l 1,0 C 19,6.568 15.432,3 11,3 Z m 0,6 c -1.108,0 -2,0.892 -2,2 0,1.108 0.892,2 2,2 l 0,-1 c -0.554,0 -1,-0.446 -1,-1 0,-0.554 0.446,-1 1,-1 0.554,0 1,0.446 1,1 l 1,0 C 13,9.892 12.108,9 11,9 Z"
       transform="translate(453.14286,654.36218)"
       id="rect4119"
       inkscape:connector-curvature="0"
       sodipodi:nodetypes="ssccssccsssccssccs" />
    <path
       style="opacity:1;fill:#666666;fill-opacity:1;stroke:none;stroke-width:2.79999995;stroke-miterlimit:4;stroke-dasharray:none;stroke-opacity:0.55026455"
       d="M 13.5 13 C 12.669 13 12 13.669 12 14.5 C 12 15.15424 12.418077 15.702197 13 15.908203 L 13 19 L 17 19 L 17 17 L 17 16 C 17.554 16 18 15.554 18 15 C 18 14.446 17.554 14 17 14 C 16.446 14 16 14.446 16 15 L 14.908203 15 C 14.963861 14.842779 15 14.67676 15 14.5 C 15 13.669 14.331 13 13.5 13 z M 17 17 L 19 19 L 19 15 L 17 17 z M 14 16 L 16 16 L 16 18 L 14 18 L 14 16 z "
       transform="translate(453.14286,654.36218)"
       id="rect4170" />
  </g>
</svg>
